packages/icons/src/SVG/calendar-solid.svg

<!-- Generated by IcoMoon.io -->
<svg version="1.1" xmlns="http://www.w3.org/2000/svg" width="12" height="12" viewBox="0 0 12 12">
<title>calendar-solid</title>
<path d="M3.996 1.008v-1.008h-0.996v1.008h-3v10.992h12v-10.992h-3v-1.008h-0.996v1.008h-4.008zM1 2.004h2v1h1v-1h4v1h1v-1h2v2h-10v-2z"></path>
</svg>

<svg width="12" height="12" viewBox="0 0 12 12" >
<path fill-rule="evenodd" clip-rule="evenodd" d="M4 1V0H3V1H0V12H12V1H9V0H8V1H4ZM1 2H3V3H4V2H8V3H9V2H11V4H1V2Z" />
</svg>
